X:23
T:Les deux freres
I:last changed 14/2/2016
F:http://www.campin.me.uk/Music/Edinbal.abc
C:Toon Van Mierlo
M:4/4
L:1/8
Q:1/4=76
K:C %Transposed from G
z|zG G/A/B cE DE|FE CA, E/F/D D/E/F/A/|zG  G/A/B    cE DE|EF FE C3:|
z|ze e/d/c BA GD|E2 zF  FE    CA,     |zA, D/E/F/A/ G3  F|FE DC C3:|

